tools/download-figma-icons/icons/solid/water-detector.svg

<svg width="24" height="24" viewBox="0 0 24 24" fill="none" xmlns="http://www.w3.org/2000/svg">
<path fill-rule="evenodd" clip-rule="evenodd" d="M21.1974 8.1H22.4597V1.5H21.1974V1.851C21.1974 1.8525 21.1982 1.85325 21.1982 1.85475V7.74525C21.1982 7.74675 21.1974 7.7475 21.1974 7.749V8.1ZM2.76092 8.1H1.49942V1.5H2.76092V8.1ZM20.9095 0H22.7485C23.416 0 23.9597 0.54375 23.9597 1.2105V8.38875C23.9597 9.05625 23.416 9.6 22.7485 9.6H20.9095C20.278 9.6 19.7635 9.11325 19.7087 8.49525H13.4087C13.114 8.49525 12.8477 8.3235 12.7255 8.055C12.6032 7.78725 12.6505 7.473 12.844 7.25175L14.0095 5.91975L12.229 5.93475C11.8915 5.9265 11.5922 5.7135 11.5007 5.388L11.1745 4.2285L10.297 4.8435L10.7102 6.42825C10.7747 6.678 10.708 6.942 10.5325 7.13025L9.47649 8.25825C9.33474 8.40975 9.13599 8.49525 8.92899 8.49525H4.25049C4.19499 9.11325 3.68124 9.6 3.04974 9.6H1.21149C0.543244 9.6 0.000244141 9.05625 0.000244141 8.38875V1.2105C0.000244141 0.54375 0.543244 0 1.21149 0H3.04974C3.68124 0 4.19499 0.48825 4.25049 1.10475H19.7087C19.7635 0.48825 20.278 0 20.9095 0ZM11.9784 19.5714C13.9134 19.5714 15.4892 17.9956 15.4892 16.0614C15.4892 14.7489 14.0642 12.4831 12.8717 10.8114C12.6609 10.5256 12.3309 10.3539 11.9784 10.3539C11.6267 10.3539 11.2967 10.5256 11.0859 10.8114C9.89343 12.4831 8.46918 14.7489 8.46918 16.0614C8.46918 17.9956 10.0434 19.5714 11.9784 19.5714ZM16.8882 13.2944C17.1814 13.0011 17.6554 13.0011 17.9487 13.2944C18.7579 14.1029 19.2042 15.1791 19.2042 16.3229C19.2042 17.4666 18.7579 18.5429 17.9487 19.3514C17.8024 19.4976 17.6104 19.5711 17.4184 19.5711C17.2264 19.5711 17.0344 19.4976 16.8882 19.3514C16.5949 19.0589 16.5949 18.5841 16.8882 18.2909C17.4139 17.7651 17.7042 17.0661 17.7042 16.3229C17.7042 15.5796 17.4139 14.8806 16.8882 14.3549C16.5949 14.0616 16.5949 13.5876 16.8882 13.2944ZM19.2934 10.9315C19.0002 11.2248 19.0002 11.6988 19.2934 11.992C21.6814 14.38 21.6814 18.2658 19.2934 20.6538C19.0002 20.947 19.0002 21.421 19.2934 21.7143C19.4397 21.8605 19.6317 21.934 19.8237 21.934C20.0157 21.934 20.2077 21.8605 20.3539 21.7143C23.3269 18.7413 23.3269 13.9045 20.3539 10.9315C20.0607 10.6383 19.5867 10.6383 19.2934 10.9315ZM6.01832 13.2944C6.31157 13.0011 6.78557 13.0011 7.07882 13.2944C7.37207 13.5876 7.37207 14.0616 7.07882 14.3549C5.99432 15.4401 5.99432 17.2056 7.07882 18.2909C7.37207 18.5841 7.37207 19.0589 7.07882 19.3514C6.93257 19.4976 6.74057 19.5711 6.54857 19.5711C6.35657 19.5711 6.16457 19.4976 6.01832 19.3514C4.34807 17.6819 4.34807 14.9646 6.01832 13.2944ZM4.67427 11.992C4.96752 11.6988 4.96752 11.2248 4.67427 10.9315C4.38102 10.6383 3.90702 10.6383 3.61377 10.9315C0.640767 13.9045 0.640767 18.7413 3.61377 21.7143C3.76002 21.8605 3.95202 21.934 4.14402 21.934C4.33602 21.934 4.52802 21.8605 4.67427 21.7143C4.96752 21.421 4.96752 20.9463 4.67427 20.6538C2.28627 18.2658 2.28627 14.38 4.67427 11.992Z" fill="black"/>
</svg>

<svg xmlns="http://www.w3.org/2000/svg" width="24" height="24" fill="none" viewBox="0 0 24 24"><path fill="currentColor" fill-rule="evenodd" d="M21.197 8.1h1.263V1.5h-1.263v.351l.001.004V8.1m-18.436 0H1.499V1.5h1.262zM20.91 0h1.838c.668 0 1.212.544 1.212 1.21v7.18c0 .667-.544 1.211-1.212 1.211H20.91a1.21 1.21 0 0 1-1.201-1.105h-6.3a.75.75 0 0 1-.565-1.243l1.165-1.332-1.78.015a.76.76 0 0 1-.728-.547l-.326-1.16-.878.615.413 1.585a.75.75 0 0 1-.178.702L9.477 8.258a.75.75 0 0 1-.547.237H4.25A1.21 1.21 0 0 1 3.05 9.6H1.21A1.213 1.213 0 0 1 0 8.389V1.21C0 .543.542 0 1.21 0h1.84a1.21 1.21 0 0 1 1.2 1.105h15.46A1.21 1.21 0 0 1 20.909 0m-8.932 19.571a3.516 3.516 0 0 0 3.511-3.51c0-1.312-1.425-3.578-2.617-5.25a1.11 1.11 0 0 0-.894-.457c-.351 0-.681.172-.892.457-1.193 1.672-2.617 3.938-2.617 5.25a3.514 3.514 0 0 0 3.51 3.51m4.91-6.277a.75.75 0 0 1 1.06 0 4.25 4.25 0 0 1 1.256 3.029c0 1.144-.446 2.22-1.255 3.028a.75.75 0 0 1-1.06 0 .75.75 0 0 1 0-1.06 2.77 2.77 0 0 0 .815-1.968c0-.743-.29-1.442-.816-1.968a.75.75 0 0 1 0-1.06m2.405-2.363a.75.75 0 0 0 0 1.061 6.13 6.13 0 0 1 0 8.662.75.75 0 1 0 1.06 1.06c2.974-2.973 2.974-7.81 0-10.782a.75.75 0 0 0-1.06 0M6.018 13.295a.75.75 0 1 1 1.06 1.06 2.79 2.79 0 0 0 0 3.937.75.75 0 1 1-1.06 1.06 4.287 4.287 0 0 1 0-6.057m-1.344-1.302a.75.75 0 1 0-1.06-1.06c-2.973 2.973-2.973 7.81 0 10.782a.75.75 0 0 0 1.06 0 .75.75 0 0 0 0-1.06 6.13 6.13 0 0 1 0-8.662" clip-rule="evenodd"/></svg>
